communes/1632.svg

<?xml version="1.0" encoding="UTF-8" standalone="no"?>
<svg
   xmlns:dc="http://purl.org/dc/elements/1.1/"
   xmlns:cc="http://creativecommons.org/ns#"
   xmlns:rdf="http://www.w3.org/1999/02/22-rdf-syntax-ns#"
   xmlns:svg="http://www.w3.org/2000/svg"
   xmlns="http://www.w3.org/2000/svg"
   xmlns:sodipodi="http://sodipodi.sourceforge.net/DTD/sodipodi-0.dtd"
   xmlns:inkscape="http://www.inkscape.org/namespaces/inkscape"
   width="49.332008mm"
   height="59.234032mm"
   viewBox="0 0 174.79845 209.88437"
   id="svg7900"
   version="1.1"
   inkscape:version="0.91 r13725"
   sodipodi:docname="1632.svg">
  <defs
     id="defs7902" />
  <sodipodi:namedview
     id="base"
     pagecolor="#ffffff"
     bordercolor="#666666"
     borderopacity="1.0"
     inkscape:pageopacity="0.0"
     inkscape:pageshadow="2"
     inkscape:zoom="2.2847652"
     inkscape:cx="-10.148839"
     inkscape:cy="123.25918"
     inkscape:document-units="px"
     inkscape:current-layer="layer1"
     showgrid="false"
     inkscape:window-width="1920"
     inkscape:window-height="1057"
     inkscape:window-x="-8"
     inkscape:window-y="-8"
     inkscape:window-maximized="1"
     fit-margin-top="0"
     fit-margin-left="0"
     fit-margin-right="0"
     fit-margin-bottom="0"
     inkscape:document-rotation="0" />
  <metadata
     id="metadata7905">
    <rdf:RDF>
      <cc:Work
         rdf:about="">
        <dc:format>image/svg+xml</dc:format>
        <dc:type
           rdf:resource="http://purl.org/dc/dcmitype/StillImage" />
        <dc:title />
      </cc:Work>
    </rdf:RDF>
  </metadata>
  <g
     inkscape:label="Ebene 1"
     inkscape:groupmode="layer"
     id="layer1"
     transform="translate(-58.886498,-506.98141)">
    <path
       style="color:#000000;clip-rule:nonzero;display:inline;overflow:visible;visibility:visible;opacity:1;isolation:auto;mix-blend-mode:normal;color-interpolation:sRGB;color-interpolation-filters:linearRGB;solid-color:#000000;solid-opacity:1;fill:#ff0000;fill-opacity:1;fill-rule:nonzero;stroke:none;stroke-width:3.08154416;stroke-linecap:square;stroke-linejoin:round;stroke-miterlimit:10;stroke-dasharray:none;stroke-dashoffset:0;stroke-opacity:1;color-rendering:auto;image-rendering:auto;shape-rendering:auto;text-rendering:auto;enable-background:accumulate"
       d="M 232.14417,508.52218 L 232.14417,616.77696 C 232.14417,671.37258 193.8513,715.325 146.28572,715.325 C 98.720126,715.325 60.427257,671.37258 60.427257,616.77696 L 60.427257,508.52218 Z"
       id="rect5788-87"
       inkscape:connector-curvature="0"
       sodipodi:nodetypes="cssscc" />
    <path
       inkscape:connector-curvature="0"
       style="display:inline;fill:#ffffff;fill-opacity:1;fill-rule:evenodd;stroke:none;stroke-width:2;stroke-linecap:butt;stroke-linejoin:miter;stroke-miterlimit:4;stroke-dasharray:none;stroke-opacity:1"
       d="M 59.847458,508.38477 L 59.847458,531.80079 C 64.897718,534.37245 69.974708,537.41945 72.962688,540.49024 C 80.528526,548.26577 80.152706,561.84558 87.718546,569.6211 C 95.284366,577.39663 108.6781,577.28893 116.24394,585.06446 C 123.80977,592.83998 123.43396,606.41979 130.9998,614.19531 C 138.56563,621.97082 151.96131,621.86316 159.52714,629.63867 C 167.09299,637.4142 166.71716,650.994 174.283,658.76953 C 181.84883,666.54504 195.2445,666.43738 202.81034,674.21289 C 204.96078,676.42293 207.07434,679.74179 209.0076,683.34375 C 218.18632,671.86806 225.01187,657.87187 228.6326,642.33984 C 228.42569,642.10674 228.21913,641.87938 228.01151,641.66601 C 220.44567,633.8905 207.05001,633.99621 199.48417,626.2207 C 191.91833,618.44517 192.29416,604.86538 184.72831,597.08985 C 177.16247,589.31434 163.76679,589.422 156.20097,581.64649 C 148.63513,573.87096 149.01095,560.29116 141.44511,552.51563 C 133.87927,544.7401 120.48359,544.8478 112.91777,537.07227 C 105.49238,529.44109 105.71152,516.22351 98.570106,508.38477 L 59.847458,508.38477 Z"
       id="path5791-8-9-1-6" />
    <g
       id="g6951"
       transform="translate(-246.46225,203.44617)">
      <path
         sodipodi:nodetypes="csssssscscc"
         inkscape:connector-curvature="0"
         id="rect5788-87-6"
         d="M 345.6875,304.97656 C 352.70491,312.83128 352.53307,325.93978 359.91602,333.52734 C 367.48184,341.30287 380.87752,341.19517 388.44336,348.9707 C 396.0092,356.74623 395.63338,370.32603 403.19922,378.10156 C 410.76505,385.87707 424.16072,385.76941 431.72656,393.54492 C 439.29241,401.32045 438.91658,414.90025 446.48242,422.67578 C 454.04826,430.45129 467.44393,430.34558 475.00977,438.12109 C 475.16416,438.27976 475.68255,439.03914 476.06055,439.57422 C 478.06726,431.19403 479.14258,422.36396 479.14258,413.23242 L 479.14258,304.97656 Z"
         style="color:#000000;clip-rule:nonzero;display:inline;overflow:visible;visibility:visible;opacity:1;isolation:auto;mix-blend-mode:normal;color-interpolation:sRGB;color-interpolation-filters:linearRGB;solid-color:#000000;solid-opacity:1;fill:#000000;fill-opacity:1;fill-rule:nonzero;stroke:none;stroke-width:3.08154416;stroke-linecap:square;stroke-linejoin:round;stroke-miterlimit:10;stroke-dasharray:none;stroke-dashoffset:0;stroke-opacity:1;color-rendering:auto;image-rendering:auto;shape-rendering:auto;text-rendering:auto;enable-background:accumulate" />
      <path
         sodipodi:nodetypes="cssscsccc"
         inkscape:connector-curvature="0"
         id="rect5788-87-6-2"
         d="M 415.99414,385.27148 C 415.99414,385.27148 427.58826,389.29194 431.72656,393.54492 C 439.29241,401.32045 438.91658,414.90025 446.48242,422.67578 C 454.04826,430.45129 467.44393,430.34558 475.00977,438.12109 C 475.16416,438.27976 475.68255,439.03914 476.06055,439.57422 C 478.06726,431.19403 479.14258,422.36396 479.14258,413.23242 L 479.14258,304.97656 L 415.99414,304.97656 Z"
         style="color:#000000;clip-rule:nonzero;display:inline;overflow:visible;visibility:visible;opacity:1;isolation:auto;mix-blend-mode:normal;color-interpolation:sRGB;color-interpolation-filters:linearRGB;solid-color:#000000;solid-opacity:1;fill:#ffe300;fill-opacity:1;fill-rule:nonzero;stroke:none;stroke-width:3.08154416;stroke-linecap:square;stroke-linejoin:round;stroke-miterlimit:10;stroke-dasharray:none;stroke-dashoffset:0;stroke-opacity:1;color-rendering:auto;image-rendering:auto;shape-rendering:auto;text-rendering:auto;enable-background:accumulate" />
    </g>
    <path
       style="color:#000000;clip-rule:nonzero;display:inline;overflow:visible;visibility:visible;opacity:1;isolation:auto;mix-blend-mode:normal;color-interpolation:sRGB;color-interpolation-filters:linearRGB;solid-color:#000000;solid-opacity:1;fill:none;fill-opacity:1;fill-rule:nonzero;stroke:#000000;stroke-width:3.08154416;stroke-linecap:square;stroke-linejoin:round;stroke-miterlimit:10;stroke-dasharray:none;stroke-dashoffset:0;stroke-opacity:1;color-rendering:auto;image-rendering:auto;shape-rendering:auto;text-rendering:auto;enable-background:accumulate"
       d="M 232.14417,508.52218 L 232.14417,616.77697 C 232.14417,671.37259 193.8513,715.32501 146.28572,715.32501 C 98.720126,715.32501 60.427255,671.37259 60.427255,616.77697 L 60.427255,508.52218 Z"
       id="rect5788-8-0"
       inkscape:connector-curvature="0"
       sodipodi:nodetypes="cssscc" />
    <path
       inkscape:connector-curvature="0"
       style="display:inline;fill:none;fill-rule:evenodd;stroke:#000000;stroke-width:2;stroke-linecap:butt;stroke-linejoin:miter;stroke-miterlimit:4;stroke-dasharray:none;stroke-opacity:1"
       d="M 59.847458,531.80079 C 64.897718,534.37245 69.974708,537.41945 72.962688,540.49024 C 80.528526,548.26577 80.152706,561.84558 87.718546,569.6211 C 95.284366,577.39663 108.6781,577.28893 116.24394,585.06446 C 123.80977,592.83998 123.43396,606.41979 130.9998,614.19531 C 138.56563,621.97082 151.96131,621.86316 159.52714,629.63867 C 167.09299,637.4142 166.71716,650.994 174.283,658.76953 C 181.84883,666.54504 195.2445,666.43738 202.81034,674.21289 C 204.96078,676.42293 207.07434,679.74179 209.0076,683.34375 M 228.6326,642.33984 C 228.42569,642.10674 228.21913,641.87938 228.01151,641.66601 C 220.44567,633.8905 207.05001,633.99621 199.48417,626.2207 C 191.91833,618.44517 192.29416,604.86538 184.72831,597.08985 C 177.16247,589.31434 163.76679,589.422 156.20097,581.64649 C 148.63513,573.87096 149.01095,560.29116 141.44511,552.51563 C 133.87927,544.7401 120.48359,544.8478 112.91777,537.07227 C 105.49238,529.44109 105.71152,516.22351 98.570106,508.38477"
       id="path5791-8-9-1"
       sodipodi:nodetypes="csssssssccssssssc" />
    <path
       transform="matrix(0.22554465,-0.11694838,0.11694838,0.22554465,139.04409,663.01613)"
       d="M 68.793821,158.04252 L 28.830163,124.39329 L -8.6032697,160.83643 L 0.55598943,109.40227 L -49.721414,95.205541 L -0.59849716,77.420613 L -13.442468,26.780738 L 26.52119,60.429968 L 63.954622,23.986826 L 54.795363,75.420984 L 105.07277,89.617716 L 55.94985,107.40264 Z"
       inkscape:randomized="0"
       inkscape:rounded="0"
       inkscape:flatsided="false"
       sodipodi:arg2="1.5347136"
       sodipodi:arg1="1.0111148"
       sodipodi:r2="32.002491"
       sodipodi:r1="77.447502"
       sodipodi:cy="92.411629"
       sodipodi:cx="27.675676"
       sodipodi:sides="6"
       id="path5878-4-9"
       style="color:#000000;clip-rule:nonzero;display:inline;overflow:visible;visibility:visible;opacity:1;isolation:auto;mix-blend-mode:normal;color-interpolation:sRGB;color-interpolation-filters:linearRGB;solid-color:#000000;solid-opacity:1;fill:#ffe300;fill-opacity:1;fill-rule:nonzero;stroke:#000000;stroke-width:7.8721056;stroke-linecap:square;stroke-linejoin:round;stroke-miterlimit:4;stroke-dasharray:none;stroke-dashoffset:0;stroke-opacity:1;color-rendering:auto;image-rendering:auto;shape-rendering:auto;text-rendering:auto;enable-background:accumulate"
       sodipodi:type="star" />
    <path
       transform="matrix(0.22554465,-0.11694838,0.11694838,0.22554465,104.25181,629.80532)"
       d="M 68.793821,158.04252 L 28.830163,124.39329 L -8.6032697,160.83643 L 0.55598943,109.40227 L -49.721414,95.205541 L -0.59849716,77.420613 L -13.442468,26.780738 L 26.52119,60.429968 L 63.954622,23.986826 L 54.795363,75.420984 L 105.07277,89.617716 L 55.94985,107.40264 Z"
       inkscape:randomized="0"
       inkscape:rounded="0"
       inkscape:flatsided="false"
       sodipodi:arg2="1.5347136"
       sodipodi:arg1="1.0111148"
       sodipodi:r2="32.002491"
       sodipodi:r1="77.447502"
       sodipodi:cy="92.411629"
       sodipodi:cx="27.675676"
       sodipodi:sides="6"
       id="path5878-4-7"
       style="color:#000000;clip-rule:nonzero;display:inline;overflow:visible;visibility:visible;opacity:1;isolation:auto;mix-blend-mode:normal;color-interpolation:sRGB;color-interpolation-filters:linearRGB;solid-color:#000000;solid-opacity:1;fill:#ffe300;fill-opacity:1;fill-rule:nonzero;stroke:#000000;stroke-width:7.8721056;stroke-linecap:square;stroke-linejoin:round;stroke-miterlimit:4;stroke-dasharray:none;stroke-dashoffset:0;stroke-opacity:1;color-rendering:auto;image-rendering:auto;shape-rendering:auto;text-rendering:auto;enable-background:accumulate"
       sodipodi:type="star" />
    <path
       transform="matrix(0.22554465,-0.11694838,0.11694838,0.22554465,71.831729,594.22232)"
       d="M 68.793821,158.04252 L 28.830163,124.39329 L -8.6032697,160.83643 L 0.55598943,109.40227 L -49.721414,95.205541 L -0.59849716,77.420613 L -13.442468,26.780738 L 26.52119,60.429968 L 63.954622,23.986826 L 54.795363,75.420984 L 105.07277,89.617716 L 55.94985,107.40264 Z"
       inkscape:randomized="0"
       inkscape:rounded="0"
       inkscape:flatsided="false"
       sodipodi:arg2="1.5347136"
       sodipodi:arg1="1.0111148"
       sodipodi:r2="32.002491"
       sodipodi:r1="77.447502"
       sodipodi:cy="92.411629"
       sodipodi:cx="27.675676"
       sodipodi:sides="6"
       id="path5878-4-5"
       style="color:#000000;clip-rule:nonzero;display:inline;overflow:visible;visibility:visible;opacity:1;isolation:auto;mix-blend-mode:normal;color-interpolation:sRGB;color-interpolation-filters:linearRGB;solid-color:#000000;solid-opacity:1;fill:#ffe300;fill-opacity:1;fill-rule:nonzero;stroke:#000000;stroke-width:7.8721056;stroke-linecap:square;stroke-linejoin:round;stroke-miterlimit:4;stroke-dasharray:none;stroke-dashoffset:0;stroke-opacity:1;color-rendering:auto;image-rendering:auto;shape-rendering:auto;text-rendering:auto;enable-background:accumulate"
       sodipodi:type="star" />
    <path
       style="color:#000000;clip-rule:nonzero;display:inline;overflow:visible;visibility:visible;opacity:1;isolation:auto;mix-blend-mode:normal;color-interpolation:sRGB;color-interpolation-filters:linearRGB;solid-color:#000000;solid-opacity:1;fill:#000000;fill-opacity:1;fill-rule:nonzero;stroke:none;stroke-width:7.8721056;stroke-linecap:square;stroke-linejoin:round;stroke-miterlimit:4;stroke-dasharray:none;stroke-dashoffset:0;stroke-opacity:1;color-rendering:auto;image-rendering:auto;shape-rendering:auto;text-rendering:auto;enable-background:accumulate"
       d="M 186.40937,549.63428 L 173.46056,546.71856 L 169.27961,559.31589 L 165.33029,546.64403 L 152.33022,549.3219 L 161.3297,539.56576 L 152.51057,529.64629 L 165.45937,532.56201 L 169.64032,519.96467 L 173.58964,532.63653 L 186.58972,529.95867 L 177.59023,539.71481 Z"
       id="path5878-4-8"
       inkscape:connector-curvature="0" />
    <path
       style="color:#000000;clip-rule:nonzero;display:inline;overflow:visible;visibility:visible;opacity:1;isolation:auto;mix-blend-mode:normal;color-interpolation:sRGB;color-interpolation-filters:linearRGB;solid-color:#000000;solid-opacity:1;fill:#ffe300;fill-opacity:1;fill-rule:nonzero;stroke:none;stroke-width:7.8721056;stroke-linecap:square;stroke-linejoin:round;stroke-miterlimit:4;stroke-dasharray:none;stroke-dashoffset:0;stroke-opacity:1;color-rendering:auto;image-rendering:auto;shape-rendering:auto;text-rendering:auto;enable-background:accumulate"
       d="M 169.27961,559.31589 L 165.33029,546.64403 L 152.33022,549.3219 L 161.3297,539.56576 L 152.51057,529.64629 L 165.45937,532.56201 L 169.64032,519.96467 Z"
       id="path5878-4-8-3"
       inkscape:connector-curvature="0"
       sodipodi:nodetypes="cccccccc" />
  </g>
</svg>

<?xml version="1.0" encoding="UTF-8"?>
<svg width="49.332mm" height="59.234mm" version="1.1" viewBox="0 0 174.8 209.88" xmlns="http://www.w3.org/2000/svg" xmlns:cc="http://creativecommons.org/ns#" xmlns:dc="http://purl.org/dc/elements/1.1/" xmlns:rdf="http://www.w3.org/1999/02/22-rdf-syntax-ns#">
<metadata>
<rdf:RDF>
<cc:Work rdf:about="">
<dc:format>image/svg+xml</dc:format>
<dc:type rdf:resource="http://purl.org/dc/dcmitype/StillImage"/>
<dc:title/>
</cc:Work>
</rdf:RDF>
</metadata>
<g transform="translate(-58.886 -506.98)">
<path d="m232.14 508.52v108.25c0 54.596-38.293 98.548-85.858 98.548-47.566 0-85.858-43.952-85.858-98.548v-108.25z" color="#000000" color-rendering="auto" fill="#f00" image-rendering="auto" shape-rendering="auto" solid-color="#000000" style="isolation:auto;mix-blend-mode:normal"/>
<path d="m59.847 508.38v23.416c5.0503 2.5717 10.127 5.6187 13.115 8.6894 7.5658 7.7755 7.19 21.355 14.756 29.131 7.5658 7.7755 20.96 7.6678 28.525 15.443 7.5658 7.7755 7.19 21.355 14.756 29.131 7.5658 7.7755 20.962 7.6678 28.527 15.443 7.5658 7.7755 7.19 21.355 14.756 29.131 7.5658 7.7755 20.962 7.6678 28.527 15.443 2.1504 2.21 4.264 5.5289 6.1973 9.1309 9.1787-11.476 16.004-25.472 19.625-41.004-0.20691-0.2331-0.41347-0.46046-0.62109-0.67383-7.5658-7.7755-20.962-7.6698-28.527-15.445-7.5658-7.7755-7.19-21.355-14.756-29.131-7.5658-7.7755-20.962-7.6678-28.527-15.443-7.5658-7.7755-7.19-21.355-14.756-29.131s-20.962-7.6678-28.527-15.443c-7.4254-7.6312-7.2062-20.849-14.348-28.688h-38.723z" fill="#fff" fill-rule="evenodd"/>
<g transform="translate(-246.46 203.45)" shape-rendering="auto">
<path d="m345.69 304.98c7.0174 7.8547 6.8456 20.963 14.229 28.551 7.5658 7.7755 20.962 7.6678 28.527 15.443s7.19 21.355 14.756 29.131c7.5658 7.7755 20.962 7.6678 28.527 15.443 7.5658 7.7755 7.19 21.355 14.756 29.131 7.5658 7.7755 20.962 7.6698 28.527 15.445 0.15439 0.15867 0.67278 0.91805 1.0508 1.4531 2.0067-8.3802 3.082-17.21 3.082-26.342v-108.26z" color="#000000" color-rendering="auto" image-rendering="auto" solid-color="#000000" style="isolation:auto;mix-blend-mode:normal"/>
<path d="m415.99 385.27s11.594 4.0205 15.732 8.2734c7.5658 7.7755 7.19 21.355 14.756 29.131 7.5658 7.7755 20.962 7.6698 28.527 15.445 0.15439 0.15867 0.67278 0.91805 1.0508 1.4531 2.0067-8.3802 3.082-17.21 3.082-26.342v-108.26h-63.148z" color="#000000" color-rendering="auto" fill="#ffe300" image-rendering="auto" solid-color="#000000" style="isolation:auto;mix-blend-mode:normal"/>
</g>
<path d="m232.14 508.52v108.25c0 54.596-38.293 98.548-85.858 98.548-47.566 0-85.858-43.952-85.858-98.548v-108.25z" color="#000000" color-rendering="auto" fill="none" image-rendering="auto" shape-rendering="auto" solid-color="#000000" stroke="#000" stroke-linecap="square" stroke-linejoin="round" stroke-miterlimit="10" stroke-width="3.0815" style="isolation:auto;mix-blend-mode:normal"/>
<path d="m59.847 531.8c5.0503 2.5717 10.127 5.6187 13.115 8.6894 7.5658 7.7755 7.19 21.355 14.756 29.131 7.5658 7.7755 20.96 7.6678 28.525 15.443 7.5658 7.7755 7.19 21.355 14.756 29.131 7.5658 7.7755 20.962 7.6678 28.527 15.443 7.5658 7.7755 7.19 21.355 14.756 29.131 7.5658 7.7755 20.962 7.6678 28.527 15.443 2.1504 2.21 4.264 5.5289 6.1973 9.1309m19.625-41.004c-0.20691-0.2331-0.41347-0.46046-0.62109-0.67383-7.5658-7.7755-20.962-7.6698-28.527-15.445-7.5658-7.7755-7.19-21.355-14.756-29.131-7.5658-7.7755-20.962-7.6678-28.527-15.443-7.5658-7.7755-7.19-21.355-14.756-29.131s-20.962-7.6678-28.527-15.443c-7.4254-7.6312-7.2062-20.849-14.348-28.688" fill="none" stroke="#000" stroke-width="2"/>
<path transform="matrix(.22554 -.11695 .11695 .22554 139.04 663.02)" d="m68.794 158.04-39.964-33.649-37.433 36.443 9.1593-51.434-50.277-14.197 49.123-17.785-12.844-50.64 39.964 33.649 37.433-36.443-9.1593 51.434 50.277 14.197-49.123 17.785z" color="#000000" color-rendering="auto" fill="#ffe300" image-rendering="auto" shape-rendering="auto" solid-color="#000000" stroke="#000" stroke-linecap="square" stroke-linejoin="round" stroke-width="7.8721" style="isolation:auto;mix-blend-mode:normal"/>
<path transform="matrix(.22554 -.11695 .11695 .22554 104.25 629.81)" d="m68.794 158.04-39.964-33.649-37.433 36.443 9.1593-51.434-50.277-14.197 49.123-17.785-12.844-50.64 39.964 33.649 37.433-36.443-9.1593 51.434 50.277 14.197-49.123 17.785z" color="#000000" color-rendering="auto" fill="#ffe300" image-rendering="auto" shape-rendering="auto" solid-color="#000000" stroke="#000" stroke-linecap="square" stroke-linejoin="round" stroke-width="7.8721" style="isolation:auto;mix-blend-mode:normal"/>
<path transform="matrix(.22554 -.11695 .11695 .22554 71.832 594.22)" d="m68.794 158.04-39.964-33.649-37.433 36.443 9.1593-51.434-50.277-14.197 49.123-17.785-12.844-50.64 39.964 33.649 37.433-36.443-9.1593 51.434 50.277 14.197-49.123 17.785z" color="#000000" color-rendering="auto" fill="#ffe300" image-rendering="auto" shape-rendering="auto" solid-color="#000000" stroke="#000" stroke-linecap="square" stroke-linejoin="round" stroke-width="7.8721" style="isolation:auto;mix-blend-mode:normal"/>
<path d="m186.41 549.63-12.949-2.9157-4.181 12.597-3.9493-12.672-13 2.6779 8.9995-9.7561-8.8191-9.9195 12.949 2.9157 4.181-12.597 3.9493 12.672 13-2.6779-8.9995 9.7561z" color="#000000" color-rendering="auto" image-rendering="auto" shape-rendering="auto" solid-color="#000000" style="isolation:auto;mix-blend-mode:normal"/>
<path d="m169.28 559.32-3.9493-12.672-13 2.6779 8.9995-9.7561-8.8191-9.9195 12.949 2.9157 4.181-12.597z" color="#000000" color-rendering="auto" fill="#ffe300" image-rendering="auto" shape-rendering="auto" solid-color="#000000" style="isolation:auto;mix-blend-mode:normal"/>
</g>
</svg>
